X:229 
T:Young And Stylish*
F:file ID: cre.5/229young
B:CRE5.039 (gan ainm)
N:'Scribal errors' /cAF G2/ in mm 8 and 16 corrected.
M:6/8
%%Q:160
R:jig
K:G
"A dorian"
A/B/|c2A BAG|EDE cde|d2c A2G|Add ded|
c2A BAG|EDE cde|=fed efe|dBG A2:|
B/d/|efg efg|A2A Bcd|eaa aba|ge^c dcd|
efg efg|A2A Bcd|ege cec|dBG A2:|

%%%

